assets/1. 1-F/B button blood type/Color/B.Button.Blood.Type-color.svg

<svg width="100%" height="100%" viewBox="0 0 32 32" fill="none" xmlns="http://www.w3.org/2000/svg">
<g filter="url(#filter0_ii_18590_2312)">
<rect x="2.09033" y="1.9375" width="27.875" height="27.875" rx="3.6" fill="url(#paint0_linear_18590_2312)"/>
<rect x="2.09033" y="1.9375" width="27.875" height="27.875" rx="3.6" fill="url(#paint1_radial_18590_2312)"/>
</g>
<g filter="url(#filter1_f_18590_2312)">
<path d="M28.2778 4.4375V27.3125" stroke="url(#paint2_linear_18590_2312)" stroke-width="1.5" stroke-linecap="round"/>
</g>
<g filter="url(#filter2_f_18590_2312)">
<path d="M5.5542 3.75H27.3354" stroke="url(#paint3_linear_18590_2312)" stroke-width="1.5" stroke-linecap="round"/>
</g>
<g filter="url(#filter3_f_18590_2312)">
<path d="M11.9928 7.86401C11.0278 7.86401 10.245 8.6451 10.2428 9.61004L10.2144 22.132C10.2133 22.5969 10.3972 23.043 10.7255 23.372C11.0538 23.7011 11.4995 23.886 11.9644 23.886H17.6942C17.7354 23.886 17.7763 23.8846 17.8169 23.8818C20.4809 23.8439 22.6753 21.6998 22.6753 19.0027C22.6753 17.4854 21.9808 16.1431 20.8989 15.2523C20.8021 15.1726 20.7734 15.0355 20.8299 14.9235C21.1604 14.2696 21.347 13.5301 21.347 12.7436C21.347 10.0224 19.1131 7.86401 16.4168 7.86401H11.9928ZM16.3899 17.623C16.3988 17.6232 16.4078 17.6232 16.4168 17.6232C16.4319 17.6232 16.4469 17.6232 16.462 17.623H17.7451C18.5615 17.623 19.1753 18.2671 19.1753 19.0027C19.1753 19.7383 18.5615 20.3823 17.7451 20.3823C17.7064 20.3823 17.668 20.3835 17.63 20.386H13.9689C13.8306 20.386 13.7186 20.2737 13.7189 20.1354L13.724 17.8725C13.7243 17.7346 13.8362 17.623 13.974 17.623H16.3899ZM16.4418 14.123H13.9831C13.8448 14.123 13.7328 14.0108 13.7331 13.8725L13.7382 11.6134C13.7385 11.4756 13.8504 11.364 13.9882 11.364H16.4168C17.2332 11.364 17.847 12.008 17.847 12.7436C17.847 13.4717 17.2457 14.11 16.4418 14.123Z" fill="#EF2B54"/>
</g>
<g filter="url(#filter4_ii_18590_2312)">
<path d="M11.9928 7.86401C11.0278 7.86401 10.245 8.6451 10.2428 9.61004L10.2144 22.132C10.2133 22.5969 10.3972 23.043 10.7255 23.372C11.0538 23.7011 11.4995 23.886 11.9644 23.886H17.6942C17.7354 23.886 17.7763 23.8846 17.8169 23.8818C20.4809 23.8439 22.6753 21.6998 22.6753 19.0027C22.6753 17.4854 21.9808 16.1431 20.8989 15.2523C20.8021 15.1726 20.7734 15.0355 20.8299 14.9235C21.1604 14.2696 21.347 13.5301 21.347 12.7436C21.347 10.0224 19.1131 7.86401 16.4168 7.86401H11.9928ZM16.3899 17.623C16.3988 17.6232 16.4078 17.6232 16.4168 17.6232C16.4319 17.6232 16.4469 17.6232 16.462 17.623H17.7451C18.5615 17.623 19.1753 18.2671 19.1753 19.0027C19.1753 19.7383 18.5615 20.3823 17.7451 20.3823C17.7064 20.3823 17.668 20.3835 17.63 20.386H13.9689C13.8306 20.386 13.7186 20.2737 13.7189 20.1354L13.724 17.8725C13.7243 17.7346 13.8362 17.623 13.974 17.623H16.3899ZM16.4418 14.123H13.9831C13.8448 14.123 13.7328 14.0108 13.7331 13.8725L13.7382 11.6134C13.7385 11.4756 13.8504 11.364 13.9882 11.364H16.4168C17.2332 11.364 17.847 12.008 17.847 12.7436C17.847 13.4717 17.2457 14.11 16.4418 14.123Z" fill="#FCF2FF"/>
</g>
<defs>
<filter id="filter0_ii_18590_2312" x="2.09033" y="0.9375" width="28.875" height="28.875" filterUnits="userSpaceOnUse" color-interpolation-filters="sRGB">
<feFlood flood-opacity="0" result="BackgroundImageFix"/>
<feBlend mode="normal" in="SourceGraphic" in2="BackgroundImageFix" result="shape"/>
<feColorMatrix in="SourceAlpha" type="matrix" values="0 0 0 0 0 0 0 0 0 0 0 0 0 0 0 0 0 0 127 0" result="hardAlpha"/>
<feOffset dx="1" dy="-1"/>
<feGaussianBlur stdDeviation="1.5"/>
<feComposite in2="hardAlpha" operator="arithmetic" k2="-1" k3="1"/>
<feColorMatrix type="matrix" values="0 0 0 0 0.901961 0 0 0 0 0.133333 0 0 0 0 0.337255 0 0 0 1 0"/>
<feBlend mode="normal" in2="shape" result="effect1_innerShadow_18590_2312"/>
<feColorMatrix in="SourceAlpha" type="matrix" values="0 0 0 0 0 0 0 0 0 0 0 0 0 0 0 0 0 0 127 0" result="hardAlpha"/>
<feOffset dy="-1"/>
<feGaussianBlur stdDeviation="1.5"/>
<feComposite in2="hardAlpha" operator="arithmetic" k2="-1" k3="1"/>
<feColorMatrix type="matrix" values="0 0 0 0 0.85098 0 0 0 0 0.168627 0 0 0 0 0.231373 0 0 0 1 0"/>
<feBlend mode="normal" in2="effect1_innerShadow_18590_2312" result="effect2_innerShadow_18590_2312"/>
</filter>
<filter id="filter1_f_18590_2312" x="25.5278" y="1.6875" width="5.5" height="28.375" filterUnits="userSpaceOnUse" color-interpolation-filters="sRGB">
<feFlood flood-opacity="0" result="BackgroundImageFix"/>
<feBlend mode="normal" in="SourceGraphic" in2="BackgroundImageFix" result="shape"/>
<feGaussianBlur stdDeviation="1" result="effect1_foregroundBlur_18590_2312"/>
</filter>
<filter id="filter2_f_18590_2312" x="2.8042" y="1" width="27.2812" height="5.5" filterUnits="userSpaceOnUse" color-interpolation-filters="sRGB">
<feFlood flood-opacity="0" result="BackgroundImageFix"/>
<feBlend mode="normal" in="SourceGraphic" in2="BackgroundImageFix" result="shape"/>
<feGaussianBlur stdDeviation="1" result="effect1_foregroundBlur_18590_2312"/>
</filter>
<filter id="filter3_f_18590_2312" x="9.21436" y="6.86401" width="14.4609" height="18.022" filterUnits="userSpaceOnUse" color-interpolation-filters="sRGB">
<feFlood flood-opacity="0" result="BackgroundImageFix"/>
<feBlend mode="normal" in="SourceGraphic" in2="BackgroundImageFix" result="shape"/>
<feGaussianBlur stdDeviation="0.5" result="effect1_foregroundBlur_18590_2312"/>
</filter>
<filter id="filter4_ii_18590_2312" x="9.81436" y="7.46401" width="13.2609" height="16.822" filterUnits="userSpaceOnUse" color-interpolation-filters="sRGB">
<feFlood flood-opacity="0" result="BackgroundImageFix"/>
<feBlend mode="normal" in="SourceGraphic" in2="BackgroundImageFix" result="shape"/>
<feColorMatrix in="SourceAlpha" type="matrix" values="0 0 0 0 0 0 0 0 0 0 0 0 0 0 0 0 0 0 127 0" result="hardAlpha"/>
<feOffset dx="-0.4" dy="0.4"/>
<feGaussianBlur stdDeviation="0.375"/>
<feComposite in2="hardAlpha" operator="arithmetic" k2="-1" k3="1"/>
<feColorMatrix type="matrix" values="0 0 0 0 0.913725 0 0 0 0 0.886275 0 0 0 0 0.968627 0 0 0 1 0"/>
<feBlend mode="normal" in2="shape" result="effect1_innerShadow_18590_2312"/>
<feColorMatrix in="SourceAlpha" type="matrix" values="0 0 0 0 0 0 0 0 0 0 0 0 0 0 0 0 0 0 127 0" result="hardAlpha"/>
<feOffset dx="0.4" dy="-0.4"/>
<feGaussianBlur stdDeviation="0.2"/>
<feComposite in2="hardAlpha" operator="arithmetic" k2="-1" k3="1"/>
<feColorMatrix type="matrix" values="0 0 0 0 1 0 0 0 0 0.988235 0 0 0 0 1 0 0 0 1 0"/>
<feBlend mode="normal" in2="effect1_innerShadow_18590_2312" result="effect2_innerShadow_18590_2312"/>
</filter>
<linearGradient id="paint0_linear_18590_2312" x1="16.0278" y1="5.51201" x2="16.0278" y2="38.7647" gradientUnits="userSpaceOnUse">
<stop stop-color="#FF4D91"/>
<stop offset="1" stop-color="#F34A5F"/>
</linearGradient>
<radialGradient id="paint1_radial_18590_2312" cx="0" cy="0" r="1" gradientUnits="userSpaceOnUse" gradientTransform="translate(27.7466 4.03125) rotate(136.771) scale(2.14444 2.50466)">
<stop stop-color="#FF77B1"/>
<stop offset="1" stop-color="#FF77B1" stop-opacity="0"/>
</radialGradient>
<linearGradient id="paint2_linear_18590_2312" x1="28.7778" y1="4.4375" x2="28.7778" y2="27.3125" gradientUnits="userSpaceOnUse">
<stop stop-color="#FF66A5"/>
<stop offset="1" stop-color="#FF5B6B"/>
</linearGradient>
<linearGradient id="paint3_linear_18590_2312" x1="28.4917" y1="4.00002" x2="2.96045" y2="4.00002" gradientUnits="userSpaceOnUse">
<stop stop-color="#FF60A3"/>
<stop offset="1" stop-color="#FF5495"/>
</linearGradient>
</defs>
</svg>

<svg width="100%" height="100%" viewBox="0 0 32 32" xmlns="http://www.w3.org/2000/svg"><g filter="url(#a)"><rect width="27.875" height="27.875" x="2.09" y="1.938" fill="url(#b)" rx="3.6"/><rect width="27.875" height="27.875" x="2.09" y="1.938" fill="url(#c)" rx="3.6"/></g><g filter="url(#d)"><path stroke="url(#e)" stroke-linecap="round" stroke-width="1.5" d="M28.278 4.438v22.875"/></g><g filter="url(#f)"><path stroke="url(#g)" stroke-linecap="round" stroke-width="1.5" d="M5.554 3.75h21.781"/></g><g filter="url(#h)"><path fill="#EF2B54" d="M11.993 7.864a1.75 1.75 0 0 0-1.75 1.746l-.029 12.522a1.75 1.75 0 0 0 1.75 1.754h5.73q.061 0 .123-.004c2.664-.038 4.858-2.182 4.858-4.88a4.84 4.84 0 0 0-1.776-3.75.27.27 0 0 1-.07-.328c.331-.654.518-1.394.518-2.18 0-2.722-2.234-4.88-4.93-4.88zm4.397 9.759h1.355c.816 0 1.43.644 1.43 1.38s-.614 1.38-1.43 1.38q-.058 0-.115.003h-3.661a.25.25 0 0 1-.25-.25l.005-2.264a.25.25 0 0 1 .25-.249zm.052-3.5h-2.459a.25.25 0 0 1-.25-.25l.005-2.26a.25.25 0 0 1 .25-.249h2.429c.816 0 1.43.644 1.43 1.38 0 .728-.601 1.366-1.405 1.379"/></g><g filter="url(#i)"><path fill="#FCF2FF" d="M11.993 7.864a1.75 1.75 0 0 0-1.75 1.746l-.029 12.522a1.75 1.75 0 0 0 1.75 1.754h5.73q.061 0 .123-.004c2.664-.038 4.858-2.182 4.858-4.88a4.84 4.84 0 0 0-1.776-3.75.27.27 0 0 1-.07-.328c.331-.654.518-1.394.518-2.18 0-2.722-2.234-4.88-4.93-4.88zm4.397 9.759h1.355c.816 0 1.43.644 1.43 1.38s-.614 1.38-1.43 1.38q-.058 0-.115.003h-3.661a.25.25 0 0 1-.25-.25l.005-2.264a.25.25 0 0 1 .25-.249zm.052-3.5h-2.459a.25.25 0 0 1-.25-.25l.005-2.26a.25.25 0 0 1 .25-.249h2.429c.816 0 1.43.644 1.43 1.38 0 .728-.601 1.366-1.405 1.379"/></g><defs><filter id="a" width="28.875" height="28.875" x="2.09" y=".938" color-interpolation-filters="sRGB" filterUnits="userSpaceOnUse"><feFlood flood-opacity="0" result="BackgroundImageFix"/><feBlend in="SourceGraphic" in2="BackgroundImageFix" result="shape"/><feColorMatrix in="SourceAlpha" result="hardAlpha" values="0 0 0 0 0 0 0 0 0 0 0 0 0 0 0 0 0 0 127 0"/><feOffset dx="1" dy="-1"/><feGaussianBlur stdDeviation="1.5"/><feComposite in2="hardAlpha" k2="-1" k3="1" operator="arithmetic"/><feColorMatrix values="0 0 0 0 0.901961 0 0 0 0 0.133333 0 0 0 0 0.337255 0 0 0 1 0"/><feBlend in2="shape" result="effect1_innerShadow_18590_2312"/><feColorMatrix in="SourceAlpha" result="hardAlpha" values="0 0 0 0 0 0 0 0 0 0 0 0 0 0 0 0 0 0 127 0"/><feOffset dy="-1"/><feGaussianBlur stdDeviation="1.5"/><feComposite in2="hardAlpha" k2="-1" k3="1" operator="arithmetic"/><feColorMatrix values="0 0 0 0 0.85098 0 0 0 0 0.168627 0 0 0 0 0.231373 0 0 0 1 0"/><feBlend in2="effect1_innerShadow_18590_2312" result="effect2_innerShadow_18590_2312"/></filter><filter id="d" width="5.5" height="28.375" x="25.528" y="1.688" color-interpolation-filters="sRGB" filterUnits="userSpaceOnUse"><feFlood flood-opacity="0" result="BackgroundImageFix"/><feBlend in="SourceGraphic" in2="BackgroundImageFix" result="shape"/><feGaussianBlur result="effect1_foregroundBlur_18590_2312" stdDeviation="1"/></filter><filter id="f" width="27.281" height="5.5" x="2.804" y="1" color-interpolation-filters="sRGB" filterUnits="userSpaceOnUse"><feFlood flood-opacity="0" result="BackgroundImageFix"/><feBlend in="SourceGraphic" in2="BackgroundImageFix" result="shape"/><feGaussianBlur result="effect1_foregroundBlur_18590_2312" stdDeviation="1"/></filter><filter id="h" width="14.461" height="18.022" x="9.214" y="6.864" color-interpolation-filters="sRGB" filterUnits="userSpaceOnUse"><feFlood flood-opacity="0" result="BackgroundImageFix"/><feBlend in="SourceGraphic" in2="BackgroundImageFix" result="shape"/><feGaussianBlur result="effect1_foregroundBlur_18590_2312" stdDeviation=".5"/></filter><filter id="i" width="13.261" height="16.822" x="9.814" y="7.464" color-interpolation-filters="sRGB" filterUnits="userSpaceOnUse"><feFlood flood-opacity="0" result="BackgroundImageFix"/><feBlend in="SourceGraphic" in2="BackgroundImageFix" result="shape"/><feColorMatrix in="SourceAlpha" result="hardAlpha" values="0 0 0 0 0 0 0 0 0 0 0 0 0 0 0 0 0 0 127 0"/><feOffset dx="-.4" dy=".4"/><feGaussianBlur stdDeviation=".375"/><feComposite in2="hardAlpha" k2="-1" k3="1" operator="arithmetic"/><feColorMatrix values="0 0 0 0 0.913725 0 0 0 0 0.886275 0 0 0 0 0.968627 0 0 0 1 0"/><feBlend in2="shape" result="effect1_innerShadow_18590_2312"/><feColorMatrix in="SourceAlpha" result="hardAlpha" values="0 0 0 0 0 0 0 0 0 0 0 0 0 0 0 0 0 0 127 0"/><feOffset dx=".4" dy="-.4"/><feGaussianBlur stdDeviation=".2"/><feComposite in2="hardAlpha" k2="-1" k3="1" operator="arithmetic"/><feColorMatrix values="0 0 0 0 1 0 0 0 0 0.988235 0 0 0 0 1 0 0 0 1 0"/><feBlend in2="effect1_innerShadow_18590_2312" result="effect2_innerShadow_18590_2312"/></filter><linearGradient id="b" x1="16.028" x2="16.028" y1="5.512" y2="38.765" gradientUnits="userSpaceOnUse"><stop stop-color="#FF4D91"/><stop offset="1" stop-color="#F34A5F"/></linearGradient><linearGradient id="e" x1="28.778" x2="28.778" y1="4.438" y2="27.313" gradientUnits="userSpaceOnUse"><stop stop-color="#FF66A5"/><stop offset="1" stop-color="#FF5B6B"/></linearGradient><linearGradient id="g" x1="28.492" x2="2.96" y1="4" y2="4" gradientUnits="userSpaceOnUse"><stop stop-color="#FF60A3"/><stop offset="1" stop-color="#FF5495"/></linearGradient><radialGradient id="c" cx="0" cy="0" r="1" gradientTransform="matrix(-1.56249 1.46876 -1.71548 -1.82495 27.747 4.031)" gradientUnits="userSpaceOnUse"><stop stop-color="#FF77B1"/><stop offset="1" stop-color="#FF77B1" stop-opacity="0"/></radialGradient></defs></svg>
